COLOR/categories 16/16/preferences-system-devices.svg

<svg height="16" width="16" xmlns="http://www.w3.org/2000/svg"><path d="m1.161017 1.372881h10.627119v7.728814h-10.627119z" fill="#1a7fd4"/><path d="m1.1606445 9.101075h10.6274415v-7.7285164z" fill="#fff" opacity=".2"/><g fill="#666"><path d="m3.994 1c-1.258.015-2.179-.03-2.931.385a1.88 1.88 0 0 0 -.838.998c-.165.439-.225.96-.225 1.617v6c0 .658.06 1.179.225 1.617.164.439.461.79.838.998.752.416 1.673.37 2.931.385h8.012c1.258-.014 2.179.03 2.932-.385a1.88 1.88 0 0 0 .838-.998c.164-.438.224-.96.224-1.617v-6c0-.658-.06-1.178-.225-1.617a1.88 1.88 0 0 0 -.837-.998c-.753-.416-1.674-.37-2.932-.385h-8.008zm.006 1h8c1.259.015 2.087.06 2.453.262.184.101.29.213.387.472.097.26.16.674.16 1.266v6c0 .592-.063 1.006-.16 1.266-.098.26-.203.371-.387.472-.366.202-1.194.247-2.453.262h-8c-1.258-.015-2.09-.06-2.455-.262-.183-.1-.287-.212-.385-.472-.097-.26-.16-.674-.16-1.266v-6c0-.592.063-1.006.16-1.266.098-.26.202-.371.385-.472.365-.202 1.195-.247 2.455-.262z" transform="matrix(.75 0 0 .75 .5 0)"/><g><path d="m3.4956055.75c-.9435.01125-1.6347305-.0226758-2.1987305.2885742a1.41 1.41 0 0 0 -.62841796.7485352c-.12375001.32925-.16845704.7201406-.16845704 1.2128906v.375c0-.49275.044707-.8836406.16845704-1.2128906a1.41 1.41 0 0 1 .62841796-.7485352c.564-.31125 1.2552305-.2773242 2.1987305-.2885742h.00293 6.005859c.9435005.01125 1.6339805-.023426 2.1987305.2885742a1.41 1.41 0 0 1 .628418.7485352c.12375.32925.168457.7193906.168457 1.2128906v-.375c0-.4935-.04471-.8836406-.168457-1.2128906a1.41 1.41 0 0 0 -.628418-.7485352c-.56475-.312-1.25523-.2773242-2.1987308-.2885742h-6.005859zm-2.2456055 6.75v.375c0 .444.047367.754219.1201172.949219.0735.195.1513242.279492.2885742.354492.27375.1515.8978086.185039 1.8413086.196289h6c.94425-.01125 1.565344-.04479 1.839844-.196289.138-.07575.216539-.159492.290039-.354492.07275-.195.120117-.505219.120117-.949219v-.375c0 .444-.04737.754219-.120117.949219-.0735.195-.152039.278742-.290039.354492-.2745.1515-.895594.185039-1.839844.196289h-6c-.9435-.01125-1.5675586-.044789-1.8413086-.196289-.13725-.075-.2150742-.159492-.2885742-.354492-.07275-.195-.1201172-.505219-.1201172-.949219z" fill="#fff" opacity=".3" stroke-width=".75"/><g transform="matrix(.77419406 0 0 .77419406 3.306449 3.499992)"><path d="m15.500023 9.9999704c0 2.5000296-1.04816 2.4708696-3.75003 2.5000296h-7.4999397c-2.7019-.0291-3.75002996 0-3.75002996-2.5000296v-5.00013c0-2.50002 1.04812996-2.47087 3.75002996-2.50002h7.4999397c2.70187.0291 3.75003 0 3.75003 2.50002z" fill="#cdcdcd"/><path d="m15.499993 9.9999704c0 2.5000296-1.04816 2.4708696-3.75003 2.5000296h-7.4999297c-2.70189-.0291-3.75002996 0-3.75002996-2.5000296v-5.00013c0-2.50002 1.04813996-2.47087 3.75002996-2.50002h7.4999297c2.70187.0291 3.75003 0 3.75003 2.50002z" fill="none" stroke="#757575" stroke-width=".5"/><path d="m.73501111 9.0000004v.9477918c0 2.3695088 1.01493759 2.3418998 3.62868579 2.3694798h7.2535621c2.613729-.02768 3.628686.000029 3.628686-2.3694798v-.9477918z" opacity=".2" stroke-width="1.055678"/><path d="m4 .5a.50005.50005 0 0 0 -.5.5v4h.5 8 .5v-4a.50005.50005 0 0 0 -.5-.5h-1.142578-5.7148439zm.5 1h.6425781 5.7148439.642578v3h-7zm-1 9.5v4a.50005.50005 0 0 0 .5.5h1.1425781 5.7148439 1.142578a.50005.50005 0 0 0 .5-.5v-4h-.5v1h-.5v2.5h-.642578-5.7148439-.6425781v-2.5h-.5v-1z" fill="#757575"/><path d="m5.1428533 1.0000004h-1.14284l-.00001 4h7.9999997l.00001-4h-1.14288zm-1.14284 9.9999996v4h1.14284 5.7142797 1.14288v-4z" fill="#faf8f6"/><rect fill="#939393" height="1" opacity=".5" rx=".196429" ry=".194443" width="6" x="5.000044" y="12"/><rect fill="#46a926" height="1" rx=".392857" width="1" x="12.999983" y="7"/><rect fill="#f34f17" height="1" rx=".392857" width="1" x="12.000013" y="7"/><rect fill="#f22c42" height="1" rx=".392853" ry=".392857" width="1" x="11.000013" y="7"/><path d="m.78406782 8h14.42534318l.03814 1h-14.50162382z" fill="#fff" opacity=".2"/></g></g></g></svg>

<?xml version="1.0" encoding="UTF-8" standalone="no"?>
<svg
   xmlns:dc="http://purl.org/dc/elements/1.1/"
   xmlns:cc="http://creativecommons.org/ns#"
   xmlns:rdf="http://www.w3.org/1999/02/22-rdf-syntax-ns#"
   xmlns:svg="http://www.w3.org/2000/svg"
   xmlns="http://www.w3.org/2000/svg"
   xmlns:sodipodi="http://sodipodi.sourceforge.net/DTD/sodipodi-0.dtd"
   xmlns:inkscape="http://www.inkscape.org/namespaces/inkscape"
   height="16"
   width="16"
   version="1.1"
   id="svg8"
   sodipodi:docname="preferences-system-devices.svg"
   inkscape:version="0.92.4 (5da689c313, 2019-01-14)">
  <metadata
     id="metadata14">
    <rdf:RDF>
      <cc:Work
         rdf:about="">
        <dc:format>image/svg+xml</dc:format>
        <dc:type
           rdf:resource="http://purl.org/dc/dcmitype/StillImage" />
        <dc:title></dc:title>
      </cc:Work>
    </rdf:RDF>
  </metadata>
  <defs
     id="defs12" />
  <sodipodi:namedview
     pagecolor="#ffffff"
     bordercolor="#666666"
     borderopacity="1"
     objecttolerance="10"
     gridtolerance="10"
     guidetolerance="10"
     inkscape:pageopacity="0"
     inkscape:pageshadow="2"
     inkscape:window-width="1920"
     inkscape:window-height="1016"
     id="namedview10"
     showgrid="false"
     inkscape:zoom="14.75"
     inkscape:cx="-10.440678"
     inkscape:cy="8"
     inkscape:window-x="0"
     inkscape:window-y="27"
     inkscape:window-maximized="1"
     inkscape:current-layer="g6" />
  <rect
     style="opacity:1;fill:#1a7fd4;fill-opacity:1;stroke:none;stroke-width:0.75;stroke-linecap:round;stroke-linejoin:round;stroke-miterlimit:4;stroke-dasharray:none;stroke-opacity:0.4"
     id="rect821"
     width="10.627119"
     height="7.7288141"
     x="1.1610169"
     y="1.3728814" />
  <path
     style="opacity:0.2;fill:#ffffff;fill-opacity:1;stroke:none;stroke-width:0.75px;stroke-linecap:butt;stroke-linejoin:miter;stroke-opacity:1"
     d="M 1.1606445,9.101075 H 11.788086 V 1.3725586 Z"
     id="path823"
     inkscape:connector-curvature="0" />
  <g
     id="g6"
     style="fill:#666666;fill-opacity:1"
     transform="matrix(0.75,0,0,0.75,0.5,0)">
    <path
       d="M 3.994,1 C 2.736,1.015 1.815,0.97 1.063,1.385 A 1.88,1.88 0 0 0 0.225,2.383 C 0.06,2.822 0,3.343 0,4 v 6 c 0,0.658 0.06,1.179 0.225,1.617 0.164,0.439 0.461,0.79 0.838,0.998 0.752,0.416 1.673,0.37 2.931,0.385 h 8.012 c 1.258,-0.014 2.179,0.03 2.932,-0.385 a 1.88,1.88 0 0 0 0.838,-0.998 C 15.94,11.179 16,10.657 16,10 V 4 C 16,3.342 15.94,2.822 15.775,2.383 A 1.88,1.88 0 0 0 14.938,1.385 C 14.185,0.969 13.264,1.015 12.006,1 H 3.998 Z M 4,2 h 8 c 1.259,0.015 2.087,0.06 2.453,0.262 0.184,0.101 0.29,0.213 0.387,0.472 C 14.937,2.994 15,3.408 15,4 v 6 c 0,0.592 -0.063,1.006 -0.16,1.266 -0.098,0.26 -0.203,0.371 -0.387,0.472 C 14.087,11.94 13.259,11.985 12,12 H 4 C 2.742,11.985 1.91,11.94 1.545,11.738 1.362,11.638 1.258,11.526 1.16,11.266 1.063,11.006 1,10.592 1,10 V 4 C 1,3.408 1.063,2.994 1.16,2.734 1.258,2.474 1.362,2.363 1.545,2.262 1.91,2.06 2.74,2.015 4,2 Z"
       id="path2"
       style="fill:#666666;fill-opacity:1"
       inkscape:connector-curvature="0" />
  </g>
  <g
     style="fill:#666666;fill-opacity:1"
     id="g848"
     fill="#808080">
    <path
       style="opacity:0.3;fill:#ffffff;fill-opacity:1;stroke-width:0.75"
       d="M 3.4956055,0.75 C 2.5521055,0.76125 1.860875,0.7273242 1.296875,1.0385742 A 1.41,1.41 0 0 0 0.66845704,1.7871094 C 0.54470703,2.1163594 0.5,2.50725 0.5,3 V 3.375 C 0.5,2.88225 0.544707,2.4913594 0.66845704,2.1621094 A 1.41,1.41 0 0 1 1.296875,1.4135742 C 1.860875,1.1023242 2.5521055,1.13625 3.4956055,1.125 h 0.00293 6.005859 C 10.447895,1.13625 11.138375,1.101574 11.703125,1.4135742 a 1.41,1.41 0 0 1 0.628418,0.7485352 C 12.455293,2.4913594 12.5,2.8815 12.5,3.375 V 3 C 12.5,2.5065 12.45529,2.1163594 12.331543,1.7871094 A 1.41,1.41 0 0 0 11.703125,1.0385742 C 11.138375,0.7265742 10.447895,0.76125 9.5043942,0.75 H 3.4985352 Z M 1.25,7.5 v 0.375 c 0,0.444 0.047367,0.754219 0.1201172,0.949219 0.0735,0.195 0.1513242,0.279492 0.2885742,0.354492 C 1.9324414,9.330211 2.5565,9.36375 3.5,9.375 h 6 c 0.94425,-0.01125 1.565344,-0.04479 1.839844,-0.196289 0.138,-0.07575 0.216539,-0.159492 0.290039,-0.354492 C 11.702633,8.629219 11.75,8.319 11.75,7.875 V 7.5 c 0,0.444 -0.04737,0.754219 -0.120117,0.949219 -0.0735,0.195 -0.152039,0.278742 -0.290039,0.354492 C 11.065344,8.955211 10.44425,8.98875 9.5,9 h -6 C 2.5565,8.98875 1.9324414,8.955211 1.6586914,8.803711 1.5214414,8.728711 1.4436172,8.644219 1.3701172,8.449219 1.2973672,8.254219 1.25,7.944 1.25,7.5 Z"
       id="path844"
       inkscape:connector-curvature="0" />
    <g
       id="g900"
       transform="translate(-60.542379,-6.2044456)">
      <g
         id="g930"
         transform="matrix(0.77419406,0,0,0.77419406,63.848828,9.7044377)">
        <path
           style="fill:#cdcdcd;fill-opacity:1"
           id="path7"
           d="M 15.500023,9.9999704 C 15.500023,12.5 14.451863,12.47084 11.749993,12.5 H 4.2500533 c -2.7019,-0.0291 -3.75002996,0 -3.75002996,-2.5000296 v -5.00013 c 0,-2.50002 1.04812996,-2.47087 3.75002996,-2.50002 h 7.4999397 c 2.70187,0.0291 3.75003,0 3.75003,2.50002 z"
           inkscape:connector-curvature="0" />
        <path
           style="fill:none;stroke:#757575;stroke-width:0.5;stroke-miterlimit:4;stroke-dasharray:none"
           id="path9"
           d="M 15.499993,9.9999704 C 15.499993,12.5 14.451833,12.47084 11.749963,12.5 H 4.2500333 c -2.70189,-0.0291 -3.75002996,0 -3.75002996,-2.5000296 v -5.00013 c 0,-2.50002 1.04813996,-2.47087 3.75002996,-2.50002 h 7.4999297 c 2.70187,0.0291 3.75003,0 3.75003,2.50002 z"
           inkscape:connector-curvature="0" />
        <path
           style="opacity:0.2;stroke-width:1.05567849"
           inkscape:connector-curvature="0"
           id="path11"
           d="m 0.73501111,9.0000004 v 0.9477918 c 0,2.3695088 1.01493759,2.3418998 3.62868579,2.3694798 h 7.2535621 c 2.613729,-0.02768 3.628686,2.9e-5 3.628686,-2.3694798 V 9.0000004 Z" />
        <path
           id="path857-7"
           d="M 4,0.5 A 0.50005,0.50005 0 0 0 3.5,1 V 5 H 4 12 12.5 V 1 A 0.50005,0.50005 0 0 0 12,0.5 H 10.857422 5.1425781 Z m 0.5,1 H 5.1425781 10.857422 11.5 v 3 h -7 z m -1,9.5 v 4 A 0.50005,0.50005 0 0 0 4,15.5 H 5.1425781 10.857422 12 A 0.50005,0.50005 0 0 0 12.5,15 V 11 H 12 v 1 h -0.5 v 2.5 H 10.857422 5.1425781 4.5 V 12 H 4 v -1 z"
           style="color:#000000;font-style:normal;font-variant:normal;font-weight:normal;font-stretch:normal;font-size:medium;line-height:normal;font-family:sans-serif;font-variant-ligatures:normal;font-variant-position:normal;font-variant-caps:normal;font-variant-numeric:normal;font-variant-alternates:normal;font-feature-settings:normal;text-indent:0;text-align:start;text-decoration:none;text-decoration-line:none;text-decoration-style:solid;text-decoration-color:#000000;letter-spacing:normal;word-spacing:normal;text-transform:none;writing-mode:lr-tb;direction:ltr;text-orientation:mixed;dominant-baseline:auto;baseline-shift:baseline;text-anchor:start;white-space:normal;shape-padding:0;clip-rule:nonzero;display:inline;overflow:visible;visibility:visible;opacity:1;isolation:auto;mix-blend-mode:normal;color-interpolation:sRGB;color-interpolation-filters:linearRGB;solid-color:#000000;solid-opacity:1;vector-effect:none;fill:#757575;fill-opacity:1;fill-rule:nonzero;stroke:none;stroke-width:1;stroke-linecap:round;stroke-linejoin:round;stroke-miterlimit:4;stroke-dasharray:none;stroke-dashoffset:0;stroke-opacity:1;color-rendering:auto;image-rendering:auto;shape-rendering:auto;text-rendering:auto;enable-background:accumulate"
           inkscape:connector-curvature="0" />
        <path
           id="path15"
           d="m 5.1428533,1.0000004 h -1.14284 l -10e-6,4 h 7.9999997 l 10e-6,-4 h -1.14288 z M 4.0000133,11 v 4 h 1.14284 5.7142797 1.14288 v -4 z"
           inkscape:connector-curvature="0"
           style="fill:#faf8f6" />
        <rect
           id="rect17"
           y="12"
           x="5.0000439"
           width="6"
           ry="0.194443"
           rx="0.196429"
           height="1"
           style="opacity:0.5;fill:#939393" />
        <rect
           id="rect19"
           y="7"
           x="12.999983"
           width="1"
           rx="0.39285699"
           height="1"
           style="fill:#46a926" />
        <rect
           id="rect21"
           y="7"
           x="12.000013"
           width="1"
           rx="0.39285699"
           height="1"
           style="fill:#f34f17" />
        <rect
           id="rect23"
           y="7"
           x="11.000013"
           width="1"
           ry="0.39285699"
           rx="0.39285299"
           height="1"
           style="fill:#f22c42" />
        <path
           sodipodi:nodetypes="ccccc"
           style="opacity:0.2;fill:#ffffff"
           inkscape:connector-curvature="0"
           id="path25"
           d="M 0.78406782,8 H 15.209411 l 0.03814,1 H 0.74592718 Z" />
      </g>
    </g>
  </g>
  <g
     id="g854"
     style="fill:#666666;fill-opacity:1"
     transform="translate(0,0.5)" />
</svg>
